X:1
T: Miss Farquharson of Invercauld
C:William Marshall
R:Strathspey
Q: 128
K:F
M:4/4
L:1/16
|:F2|CF3 F3G A3G A3F|DG3 G3A B4 A3c|d3f cf3 A3F GA3|C3F E3G F4 F2F2|
CF3 F3G A3G A3F|DG3 G3A B4 A3c|d3f cf3 A3F GA3|C3F E3G F4 F2e2|
f3c fa3 f3c fa3|f3c fa3 g4 g3a|fc3 c3A f3b ag3|fd3 c3A G4 G3g|
f3c ca3 f3c c3a|f3c fa3 g4 g3a|f3c cA3 f3b a3g|fd3 c3A F6:|
